X:11522
T:Mueira del Gaiteru Lliberdn (MG 26)
R:Mueira
C:Versin de Lliberdn
S:Msica Tradicional Asturiana, (C) Tello & Tito. Asturies, 2001.
S:http://pagina.de/MusTradAst <telloytito@asturies.org>
O:Lliberdn
A:Asturies
Z:Mtodu de Gaita 26
E:Nivel 3
M:6/8
L:1/8
Q:3/8=88
K:C
"Intro"EEE|:.G2 G EEE|.A2 A EEE|
.G2 G FED|~EDC EEE|.G2 G EEE|
.A2 A EEE|GAG F~ED|[1 C3 EEE:|
[2 C3 G A B||"Tema"|:c G c GAG|~EDC ~EDE|
.F2 D DCD|~EDC G A B|c G c GAG|
~EDC EDE|.F2 D B,DG|C3 G A B|
c G c GAG|~EDC EDE|.F2 D DEF|
~A2 G G A B|c G c GAG|~EDC EDE|
.F2 D B,DG|C3 G A B|AGE GAG|
~EDC EDE|.F2 D DCD|~EDC G A B|
AGE GAG|~EDC EDE|.F2 D B,DG|
C3 G A B|AGD GAG|~EDC EDE|
.F2 D DEF|~A2 G G A B|AGE GAG|
~EDC EDE|.F2 D B,DG|C3 G A B|
c2 E EDE|GEC ED.E|ED.E .ED.E|
EDC ED.E|ED.E EDE|GEC EF.G|
GFG .GFG|EDC EF.G|GFE EF.G|
GFE EF.G|GF.G GFG|.GF.E EF.G|
GF.G GF.G|GFE FE.F|GFE FE.F|
GF.E FEF|GF.E ED~E|[1 C2 z G A B:|
[2 C6-|C6 -|C3 z3||
